!!!OTL: ALS DIE PREUSSEN MARSCHIRTEN
!!!ARE: Europa, Mitteleuropa, Deutschland, Preussen
!!!SCT: Z0094
!!!YEM: Copyright 1995, estate of Helmut Schaffrath.
**kern
*ICvox
*Ivox
*M4/4
*k[b-e-]
*B-:
{8b-
8dd
=1
4ff
8dd
8b-
8cc
8b-
8cc
8dd
=2
2b-
4r}
{8b-
8dd
=3
4cc
8cc
8ee-
4dd
8dd
8ff
=4
4ee-
4dd
4cc}
{8b-
8dd
=5
8ff
8ee-
8dd
8cc
8b-
8b-
8a-
8a-
=6
4g
4b-
4ee-}
{8ee-
8ff
=7
8gg
8ff
8ee-
8dd
8cc
8dd
8cc
8b-
=8
8a
8cc
8cc
8ff
4ff}
{4f
=9
4b-
8b-
8dd
4cc
8cc
8ee-
=10
4dd
8ee-
8gg
4ff
4r}
=11
{8ff
8gg
8ff
16dd
16cc
4dd
4cc
=12
2b-
4r}
==
!!!AGN: Sagen - Lied, Romanze, Soldaten - Lied
!!!ONB: ESAC (Essen Associative Code) Database: ZUCCAL
!!!AMT: simple quadruple
!!!AIN: vox
!!!EED: Helmut Schaffrath
!!!EEV: 1.0
*-
